X:320
T: Hickey's (a)
S: "Johnny O'Leary of Sliabh Luachra" (#337)
Z: B.Black
L: 1/8
M: 4/4
R: reel
K: D
(3ABc|d2 cA BE E2|(3FED AD FDFA|fded BE E2|(3Bcd ed cGBc|
d2 cA BEEE|FDAD FDFA|dfed BE E2|(3Bcd ed cA||
(3B=c^c|dzfd adfd|fded BA (3FGA|dzfd adfd|Beed BA (3FGA|
d2 fd c2 ec|BA (3B=c^c eB (3BcB|ABde fdAF|G4 ||
